svg/outline/grid.svg

<svg width="24" height="24" viewBox="0 0 24 24" fill="none" xmlns="http://www.w3.org/2000/svg">
<path d="M5.5 9.5V6.5C5.5 5.94772 5.94772 5.5 6.5 5.5H9.5C10.0523 5.5 10.5 5.94772 10.5 6.5V9.5C10.5 10.0523 10.0523 10.5 9.5 10.5H6.5C5.94772 10.5 5.5 10.0523 5.5 9.5Z" stroke="black" stroke-linecap="round" stroke-linejoin="round"/>
<path d="M13.5 9.5V6.5C13.5 5.94772 13.9477 5.5 14.5 5.5H17.5C18.0523 5.5 18.5 5.94772 18.5 6.5V9.5C18.5 10.0523 18.0523 10.5 17.5 10.5H14.5C13.9477 10.5 13.5 10.0523 13.5 9.5Z" stroke="black" stroke-linecap="round" stroke-linejoin="round"/>
<path d="M13.5 17.5V14.5C13.5 13.9477 13.9477 13.5 14.5 13.5H17.5C18.0523 13.5 18.5 13.9477 18.5 14.5V17.5C18.5 18.0523 18.0523 18.5 17.5 18.5H14.5C13.9477 18.5 13.5 18.0523 13.5 17.5Z" stroke="black" stroke-linecap="round" stroke-linejoin="round"/>
<path d="M5.5 17.5V14.5C5.5 13.9477 5.94772 13.5 6.5 13.5H9.5C10.0523 13.5 10.5 13.9477 10.5 14.5V17.5C10.5 18.0523 10.0523 18.5 9.5 18.5H6.5C5.94772 18.5 5.5 18.0523 5.5 17.5Z" stroke="black" stroke-linecap="round" stroke-linejoin="round"/>
</svg>

<svg xmlns="http://www.w3.org/2000/svg" fill="none" viewBox="0 0 24 24" stroke="currentColor">
  <path stroke-linecap="round" stroke-linejoin="round" d="M5.5 9.5v-3a1 1 0 011-1h3a1 1 0 011 1v3a1 1 0 01-1 1h-3a1 1 0 01-1-1zM13.5 9.5v-3a1 1 0 011-1h3a1 1 0 011 1v3a1 1 0 01-1 1h-3a1 1 0 01-1-1zM13.5 17.5v-3a1 1 0 011-1h3a1 1 0 011 1v3a1 1 0 01-1 1h-3a1 1 0 01-1-1zM5.5 17.5v-3a1 1 0 011-1h3a1 1 0 011 1v3a1 1 0 01-1 1h-3a1 1 0 01-1-1z"/>
</svg>
